X: 190
T: Pie Baicai
L: 1/8
M: 2/4
K: E
f c f c [I:setbarnb 1]| 
B c/ e/B2 | 
e G B c/ B/ | 
E F c B | 
B> e c B | 
e> GF2 | 
B E/ G/ F/ G/ F/ C/ | 
B,4 |]

@@@ Tune index: 9064
